X:1
T:St. George’s Edinburgh, CMD
T:St. George’s Edinburgh, CMD
T:Andrew Mitchell Thomson (1778-1831)
T:Public Domain Courtesy of the Cyber Hymnal™
C:Andrew Mitchell Thomson (1778-1831)
Z:Public Domain
Z:Courtesy of the Cyber Hymnal™
%%score ( 1 2 ) ( 3 4 )
L:1/8
Q:1/4=110
M:4/4
K:E
V:1 treble 
V:2 treble 
V:3 bass 
V:4 bass 
V:1
 E4 | E2 [DF]2 [EG]2 [FA]2 | [GB]4 [AB]4 | [GB]6 [GB]2 | [FA]2 [EG]2 [DF]2 E2 | %5
 ([EG]4 [DF]2) [DF]2 | [EG]2 [DA]2 [EB]2 (ed) | [Ec]3 [EB] [EB]2 (E[DF]) | [EG]2 [EB]2 A2 [DF]2 | %9
 E6 G,2 | B,6 B,2 | B,2 B,2 B,2 ^A,2 | B,6 B2 | [Ee]2 B2 G2 E2 | B6 [EB]2 | %15
 [Ec]2 [Ad]2 [Ge]2 [EB]2 | ([DA][EG]) ([B,F]E) ([EG][DF]) [DF]2 | [EG]2 [Ec]2 [DB]2 [C^A]2 | %18
 [DB]6 [EB]2 | [Ec]2 [Ad]2 [Ge]2 [EB]2 | ([DA][EG]) ([B,F]E) [EG][DF] [DB]2 | %21
 (E[B,F]) (GA) [EG]2 ([DF]>E) | E4 |] %23
V:2
 E4 | E2 x6 | x8 | x8 | x6 E2 | x8 | x6 E2 | x6 E x | x4 (FE) x2 | E6 x2 | x8 | x8 | x6 B2 | %13
 x2 B2 G2 E2 | B6 x2 | x8 | x3 E x4 | x8 | x8 | x8 | x3 E x4 | E E2 x5/2 E/ x2 | E4 |] %23
V:3
 [E,G,]4 | [G,B,]2 [A,B,]2 [G,B,]2 [F,A,]2 | (G,2 E2) [B,,D]4 | [E,E]6 [E,B,]2 | %4
 [D,B,]2 [E,B,]2 [A,B,]2 B,2 | B,6 [B,,B,]2 | [E,B,]2 [F,B,]2 [G,B,]2 B,2 | %7
 [A,C]3 [G,E] [G,E]2 B,2 | [E,B,]2 [G,,B,]2 [A,,C]2 (B,A,) | [E,G,]6 [E,G,]2 | [D,B,]6 [G,B,]2 | %11
 [E,B,]2 [D,B,]2 [C,B,]2 [F,^A,]2 | [B,,B,]6 B,2 | [E,E]2 B,2 G,2 E,2 | B,6 G,2 | A,2 F,2 E,2 G,2 | %16
 (F,E,) (D,C,) B,,2 B,,2 | E,2 C,2 F,2 F,2 | B,,6 [E,G,]2 | [A,C]2 [F,B,]2 [E,B,]2 G,2 | %20
 B,2 ([D,B,][C,^A,]) [B,,B,]2 [B,,F,]2 | [E,G,][D,F,]E,[A,,C] (B,2 A,>)[B,,A,] | [E,G,]4 |] %23
V:4
 x4 | x8 | E,4 x4 | x8 | x6 (G,E,) | B,6 x2 | x6 (G,A,) | x6 (G,F,) | x6 B,,2 | x8 | x8 | x8 | %12
 x6 B,2 | x2 B,2 G,2 E,2 | B,6 x2 | x8 | x8 | x8 | x8 | x6 G,2 | (F,E,) x6 | x2 (E, B,,3) x2 | %22
 x4 |] %23

